dist/images/logo-abbott-color-mobile.svg

<svg width="83" height="21" viewBox="0 0 83 21" fill="none" xmlns="http://www.w3.org/2000/svg">
<path d="M3.41147 6.84787C1.52707 6.84787 0 8.37493 0 10.2588V17.1323C0 19.0173 1.52707 20.5443 3.41147 20.5443H22.2689C24.1533 20.5443 25.6802 19.0173 25.6802 17.1323V3.41074C25.6802 1.52707 24.1533 0 22.2689 0H0V3.42402H21.1501C21.7612 3.42402 22.256 3.91897 22.256 4.52987V16.0141C22.256 16.6244 21.7612 17.1205 21.1501 17.1205H4.52951C3.91934 17.1205 3.42403 16.6244 3.42403 16.0141V11.3774C3.42403 10.7672 3.91897 10.2717 4.52951 10.2717H18.8318V6.84787H3.41147Z" fill="#0095D6"/>
<path d="M69.918 11.65C69.918 14.2206 68.1192 15.6481 65.6628 15.6481C63.2017 15.6481 61.4064 14.2206 61.4064 11.65C61.4064 9.0809 63.2017 7.65122 65.6628 7.65122C68.1192 7.65122 69.918 9.0809 69.918 11.65ZM52.3504 15.4116H54.2013L54.6779 14.4115C55.2519 15.295 56.177 15.6481 57.2153 15.6481C59.6909 15.6481 60.6129 13.7701 60.6129 11.6493C60.6129 9.53406 59.6909 7.65122 57.2153 7.65122C56.4767 7.65122 55.7004 8.08456 55.0911 8.75925V4.7627H50.9994V6.04706H51.7579C52.236 6.04706 52.3504 6.28541 52.3504 6.7393V15.4116ZM43.0952 15.4116H44.9461L45.4227 14.4115C45.9975 15.295 46.9226 15.6481 47.9605 15.6481C50.4365 15.6481 51.3585 13.7701 51.3585 11.6493C51.3585 9.53406 50.4365 7.65122 47.9605 7.65122C47.223 7.65122 46.446 8.08456 45.8352 8.75925V4.7627H41.7442V6.04706H42.5028C42.9805 6.04706 43.0952 6.28541 43.0952 6.7393V15.4116ZM35.3775 7.15211H35.4105L36.5961 10.61H34.2026L35.3775 7.15211ZM34.3883 4.7627L31.6345 12.7902C31.2999 13.7701 31.0728 13.9968 30.4957 13.9968H29.9336V15.4116H34.782V13.9968H34.3077C33.86 13.9968 33.2806 13.9475 33.2806 13.6879C33.2806 13.4626 33.3474 13.2246 33.5273 12.665L33.7276 12.0217H37.0926L37.4376 13.1753C37.5036 13.417 37.5204 13.5937 37.5204 13.7581C37.5204 13.9326 37.1087 13.9968 36.613 13.9968H36.1196V15.4116H42.1386V13.9968H41.5784C41.0044 13.9968 40.7723 13.7701 40.445 12.7902L37.6885 4.7627H34.3883ZM48.4416 11.6493C48.4416 13.29 48.0656 14.2684 47.1374 14.2684C46.2146 14.2684 45.8352 13.29 45.8352 11.6493C45.8352 10.013 46.2146 9.03458 47.1374 9.03458C48.0656 9.03458 48.4416 10.013 48.4416 11.6493ZM65.6628 8.9367C64.6736 8.9367 64.3271 9.75521 64.3271 11.65C64.3271 13.5444 64.6736 14.3637 65.6628 14.3637C66.6508 14.3637 66.9957 13.5444 66.9957 11.65C66.9957 9.75521 66.6508 8.9367 65.6628 8.9367ZM81.6783 11.7804V13.0319C81.6783 13.7701 81.5145 14.2072 80.8875 14.2072C80.5088 14.2072 80.3288 13.9318 80.3288 13.5937V9.17803H82.3536V7.89292H80.3288V4.90914H78.6931C78.5588 6.2402 78.1314 7.89292 76.4823 7.89292H73.9096V4.90914H72.2785C72.1453 6.2402 71.7152 7.89292 70.0684 7.89292V9.17803H71.1727V13.2075C71.1727 14.846 72.1123 15.6481 73.8083 15.6481C75.7924 15.6481 76.5786 14.7832 76.5786 13.2075V11.7804H75.2644V13.0319C75.2644 13.7701 75.0979 14.2072 74.4728 14.2072C74.0895 14.2072 73.9096 13.9318 73.9096 13.5937V9.17803H77.5923V13.2075C77.5923 14.846 78.5285 15.6481 80.2283 15.6481C82.2059 15.6481 82.9998 14.7832 82.9998 13.2075V11.7804H81.6783ZM57.696 11.6493C57.696 13.29 57.3208 14.2684 56.3915 14.2684C55.4691 14.2684 55.0911 13.29 55.0911 11.6493C55.0911 10.013 55.4691 9.03458 56.3915 9.03458C57.3208 9.03458 57.696 10.013 57.696 11.6493Z" fill="black"/>
</svg>

<svg width="83" height="21" viewBox="0 0 83 21" fill="none" xmlns="http://www.w3.org/2000/svg"><path d="M3.411 6.848A3.411 3.411 0 000 10.258v6.874a3.411 3.411 0 003.411 3.412H22.27a3.411 3.411 0 003.411-3.412V3.411A3.41 3.41 0 0022.27 0H0v3.424h21.15c.611 0 1.106.495 1.106 1.106v11.484c0 .61-.495 1.107-1.106 1.107H4.53c-.61 0-1.106-.497-1.106-1.107v-4.637c0-.61.495-1.105 1.106-1.105h14.302V6.848H3.412z" fill="#0095D6"/><path d="M69.918 11.65c0 2.57-1.799 3.998-4.255 3.998-2.461 0-4.257-1.427-4.257-3.998 0-2.57 1.796-3.999 4.257-3.999 2.456 0 4.255 1.43 4.255 3.999zM52.35 15.412h1.851l.477-1c.574.883 1.499 1.236 2.537 1.236 2.476 0 3.398-1.878 3.398-3.999 0-2.115-.922-3.998-3.398-3.998-.738 0-1.515.434-2.124 1.108V4.763H51v1.284h.759c.478 0 .592.238.592.692v8.673zm-9.255 0h1.851l.477-1c.575.883 1.5 1.236 2.538 1.236 2.476 0 3.398-1.878 3.398-3.999 0-2.115-.922-3.998-3.398-3.998-.738 0-1.515.434-2.126 1.108V4.763h-4.09v1.284h.758c.477 0 .592.238.592.692v8.673zm-7.718-8.26h.033l1.186 3.458h-2.393l1.174-3.458zm-.989-2.39l-2.753 8.028c-.335.98-.562 1.207-1.14 1.207h-.561v1.415h4.848v-1.415h-.474c-.448 0-1.027-.05-1.027-.31 0-.224.066-.462.246-1.022l.2-.643h3.366l.345 1.153c.066.242.082.419.082.583 0 .175-.411.239-.907.239h-.493v1.415h6.019v-1.415h-.56c-.575 0-.807-.227-1.134-1.207l-2.757-8.027h-3.3zm14.054 6.887c0 1.641-.376 2.62-1.305 2.62-.922 0-1.302-.979-1.302-2.62 0-1.636.38-2.614 1.302-2.614.929 0 1.305.978 1.305 2.614zm17.22-2.712c-.988 0-1.335.818-1.335 2.713 0 1.894.347 2.714 1.336 2.714.988 0 1.333-.82 1.333-2.714 0-1.895-.345-2.713-1.333-2.713zm16.016 2.843v1.252c0 .738-.163 1.175-.79 1.175-.38 0-.56-.275-.56-.613V9.178h2.026V7.893h-2.025V4.909h-1.636c-.134 1.331-.562 2.984-2.21 2.984H73.91V4.909h-1.632c-.133 1.331-.563 2.984-2.21 2.984v1.285h1.105v4.03c0 1.638.94 2.44 2.635 2.44 1.984 0 2.77-.865 2.77-2.44V11.78h-1.314v1.252c0 .738-.166 1.175-.791 1.175-.383 0-.563-.275-.563-.613V9.178h3.682v4.03c0 1.638.936 2.44 2.636 2.44 1.978 0 2.772-.865 2.772-2.44V11.78h-1.322zm-23.982-.13c0 1.64-.375 2.618-1.304 2.618-.923 0-1.3-.978-1.3-2.619 0-1.636.377-2.614 1.3-2.614.929 0 1.304.978 1.304 2.614z" fill="#000"/></svg>
